packages/base/core/src/svg/system/user.svg

<?xml version="1.0" encoding="UTF-8"?>
<svg width="24px" height="24px" viewBox="0 0 24 24" version="1.1" xmlns="http://www.w3.org/2000/svg" xmlns:xlink="http://www.w3.org/1999/xlink">
    <!-- Generator: Sketch 54.1 (76490) - https://sketchapp.com -->
    <title>Icons/System/user</title>
    <desc>Created with Sketch.</desc>
    <g id="Icons/System/user" stroke="none" stroke-width="1" fill="none" fill-rule="evenodd">
        <path d="M16.7756602,19.629848 C15.1302227,19.0191512 13.9772679,18.3917527 13.2926219,17.7071068 C12.9222402,17.3367251 12.7300483,16.8964309 12.8142607,16.3911566 C12.9054727,15.8438848 14.0646329,14.5918142 14.0814832,14.5680097 C14.6650096,13.7436629 14.9997287,12.6562686 14.9997287,11 C14.9997287,8.17604141 14.0588956,7 11.9997287,7 C9.94075049,7.0001033 9,8.17616544 9,11 C9,12.6562686 9.33471907,13.7436629 9.91824549,14.5680097 C9.93509582,14.5918142 11.094256,15.8438848 11.185468,16.3911566 C11.2696804,16.8964309 11.0774885,17.3367251 10.7071068,17.7071068 C10.0224845,18.3917291 8.86958559,19.0191079 7.22423896,19.6297848 C8.60837185,20.4979929 10.2455609,21 12,21 C13.7543965,21 15.3915486,20.4980173 16.7756602,19.629848 Z M18.5544307,18.1676497 C20.0708151,16.5567796 21,14.3869012 21,12 C21,7.02943725 16.9705627,3 12,3 C7.02943725,3 3,7.02943725 3,12 C3,14.3868464 3.92914226,16.55668 5.44546477,18.1675387 C5.51772329,18.119467 5.59748227,18.08008 5.68377223,18.0513167 C7.24331939,17.5314677 8.34933831,17.0209088 8.97887525,16.5581397 C8.60399449,16.1518613 8.50714985,16.036185 8.28583614,15.7235355 C7.45925846,14.5558305 7,13.063848 7,11 C7,7.15739806 8.7257382,5.00011917 11.9997287,5 C15.2738952,5 16.9997287,7.15729192 16.9997287,11 C16.9997287,13.063848 16.5404702,14.5558305 15.7138926,15.7235355 C15.4925788,16.036185 15.3957342,16.1518613 15.0208534,16.5581397 C15.6503904,17.0209088 16.7564093,17.5314677 18.3159565,18.0513167 C18.4023128,18.0801022 18.4821282,18.1195276 18.5544307,18.1676497 Z M12,23 C5.92486775,23 1,18.0751322 1,12 C1,5.92486775 5.92486775,1 12,1 C18.0751322,1 23,5.92486775 23,12 C23,18.0751322 18.0751322,23 12,23 Z" id="Color" fill="#2859C0"></path>
    </g>
</svg>

<svg xmlns="http://www.w3.org/2000/svg" width="24" height="24" viewBox="0 0 24 24">
    <path fill="#0050D7" fill-rule="evenodd" d="M12 1c6.075 0 11 4.925 11 11s-4.925 11-11 11S1 18.075 1 12 5.925 1 12 1zm0 6c-2.06 0-3 1.176-3 4 0 1.656.335 2.744.918 3.568.017.024 1.176 1.276 1.267 1.823.085.505-.108.946-.478 1.316-.684.684-1.836 1.312-3.48 1.922A8.94 8.94 0 0 0 12 21a8.958 8.958 0 0 0 4.776-1.37c-1.647-.611-2.799-1.239-3.483-1.923-.37-.37-.563-.81-.479-1.316.091-.547 1.25-1.8 1.267-1.823.584-.824.919-1.912.919-3.568 0-2.736-.883-3.925-2.81-3.997L12 7zm0-4a9 9 0 0 0-6.554 15.168.955.955 0 0 1 .238-.117c1.56-.52 2.665-1.03 3.295-1.493-.375-.406-.472-.522-.693-.834C7.459 14.556 7 13.064 7 11c0-3.843 1.726-6 5-6l.231.004C15.355 5.104 17 7.249 17 11c0 2.064-.46 3.556-1.286 4.724-.221.312-.318.428-.693.834.63.463 1.735.973 3.295 1.493.086.03.166.068.238.116A9 9 0 0 0 12 3z"/>
</svg>
